X: 09058
T: JUST SAY MO
C: Bob McQuillen 18 Sept 92
B: Bob's Note Book 9 #58
%R: jig
Z: 2018 John Chambers <jc:trillian.mit.edu>
M: 6/8
L: 1/8
K: G
d3 \
| geg dBG | DGA B2G | ABc DEF | GBe dBd |
| geg dBG | DGA B2d | cAF DEF | G3 :|
|: B3 \
| AFD AFD | cBc A2D | GAB cde | dBG A2d |
| geg dBd | cde d2B | ABc def | g3 :|
%%begintext align
%% I get to see Moe Turotte once a
%% year when I go to Augusta for Irish Week and take Billy
%% McComiskey's Button Box class. Moe is a regular down
%% there and it's alays a pleasure when we have our
%% annual meeting. He has a T-shirt that gave me the
%% title of this tune; I sure hope it plays OK on your box, Moe.
%%endtext

%%sep 1 1 500

%%sep 1 1 500

